X: 10276
T: Dog Big And Dog Little
R: reel
M: 4/4
K: Dmajor
d2dc d2AF|d2fd (3Bcd ec|dcde dAFA|BGEA FDFA|
dfec d2AF|defd (3Bcd ec|defd AFDF|BGEA FDFA|
BE (3EEE BEcE|BE (3EEE ABcd|BE (3EEE BEcE|dcdA FGAd|
BE (3EEE BEcE|BE (3EEE ABcd|BE (3EEE BEcE|dcdA FGBc|
d2fd cdec|(3dcd fd faaf|d2fd adfa|bged ceAc|
d2Ad (3Bcd ec|defd faaf|~g2gf edBA|(3Bcd eg (3fgf ef:|d8||

